uniscan/assets/svg/logo_min.svg

<?xml version="1.0" encoding="UTF-8"?>
<svg id="Layer_1" data-name="Layer 1" xmlns="http://www.w3.org/2000/svg" viewBox="0 0 200 200">
  <defs>
    <style>
      .cls-1 {
        stroke-width: 0px;
      }
    </style>
  </defs>
  <path class="cls-1" d="m0,0v133.55h66.61v66.45h133.39V0H0Zm133.39,133.39h-66.77v-66.61h66.77v66.61Zm-111.13,44.51h22.1v-22.1h-22.1v22.1Z"/>
</svg>

<svg width="200" height="200" viewBox="0 0 200 200" fill="none" xmlns="http://www.w3.org/2000/svg">
<path d="M0 0V133.55H66.61V200H200V0H0ZM133.39 133.39H66.62V66.78H133.39V133.39ZM22.26 177.9H44.36V155.8H22.26V177.9Z" fill="black"/>
</svg>
